client/public/images/icon_house.svg

<svg fill="none" height="20" viewBox="0 0 22 22" width="20" xmlns="http://www.w3.org/2000/svg"><g stroke="#fff"><path d="m4.125 16v3.125c0 .6904.55964 1.25 1.25 1.25h3.75v-5c0-.6904.55964-1.25 1.25-1.25h1.25c.6904 0 1.25.5596 1.25 1.25v5h3.75c.6904 0 1.25-.5596 1.25-1.25v-3.125"/><path d="m1.625 14.7498 8.4908-8.49082c.2345-.2346.5525-.3664.8842-.3664s.6497.1318.8842.3664l8.4908 8.49082"/><path d="m14.75 9.125v-1.25h3.125v4.375"/><path d="m15.2685 1.625-.3392.4525c-.2829.37031-.2241.89771.1334 1.19667.3574.29896.4162.82635.1333 1.19666l-.3392.4525"/><path d="m18.3935 1.625-.3392.4525c-.2829.37031-.2241.89771.1334 1.19667.3574.29896.4162.82635.1333 1.19666l-.3392.4525"/></g></svg>

<svg
width="20"
height="20"
viewBox="0 0 22 22"
fill="none"
xmlns="http://www.w3.org/2000/svg"
>
<path
  d="M4.125 16V19.125C4.125 19.8154 4.68464 20.375 5.375 20.375H9.125V15.375C9.125 14.6846 9.68464 14.125 10.375 14.125H11.625C12.3154 14.125 12.875 14.6846 12.875 15.375V20.375H16.625C17.3154 20.375 17.875 19.8154 17.875 19.125V16"
  stroke="white"
  strokeWidth="1.5"
  strokeLinecap="round"
  strokeLinejoin="round"
/>
<path
  d="M1.625 14.7498L10.1158 6.25898C10.3503 6.02438 10.6683 5.89258 11 5.89258C11.3317 5.89258 11.6497 6.02438 11.8842 6.25898L20.375 14.7498"
  stroke="white"
  strokeWidth="1.5"
  strokeLinecap="round"
  strokeLinejoin="round"
/>
<path
  d="M14.75 9.125V7.875H17.875V12.25"
  stroke="white"
  strokeWidth="1.5"
  strokeLinecap="round"
  strokeLinejoin="round"
/>
<path
  d="M15.2685 1.625L14.9293 2.0775C14.6464 2.44781 14.7052 2.97521 15.0627 3.27417V3.27417C15.4201 3.57313 15.4789 4.10052 15.196 4.47083L14.8568 4.92333"
  stroke="white"
  strokeWidth="1.5"
  strokeLinecap="round"
  strokeLinejoin="round"
/>
<path
  d="M18.3935 1.625L18.0543 2.0775C17.7714 2.44781 17.8302 2.97521 18.1877 3.27417V3.27417C18.5451 3.57313 18.6039 4.10052 18.321 4.47083L17.9818 4.92333"
  stroke="white"
  strokeWidth="1.5"
  strokeLinecap="round"
  strokeLinejoin="round"
/>
</svg>
